X:1
T:Gdy się Chrystus rodzi
T:Gdy się Chrystus rodzi
%%score { 1 | 2 }
L:1/8
M:4/4
K:F
V:1 treble nm="Piano" snm="P-no"
V:2 bass 
V:1
 z2 z2 !4!F2 !2!D2 | !1!D4 C4 | C4 C4 | C4 C4 :| z8 | z8 | z8 | z8 | !1!C3 C C4 | !2!D3 D D4 | %10
w: Chry- stus|ro- dzi|i~na świat~przy-|cho- dzi|||||Glo- ri- a|Glo- ri- a|
w: noc w~ja-|sno- ściach|promie- nistych|bro- dzi|||||||
 !3!E3 E E4 | !4!F2 !1!C2 !2!D2 z2 | !1!C4 C4 | C8 |] %14
w: Glo- ri- a|in ex- cel-|De- *|o|
w: ||||
V:2
 !1!C2 !3!A,2 z4 | !2!B,4 !3!A,4 | !3!A,2 !3!A,2 !2!B,2 !4!G,2 | !4!G,4 !5!!3![F,A,]4 :| %4
w: Gdy się||||
w: cie- mna||||
 !4!G,2 !4!G,2 !2!B,2 !4!G,2 | !3!A,2 !3!A,2 !1!C2 !3!A,2 | !4!G,2 !4!G,2 !2!B,2 !4!G,2 | %7
w: a- nio- ło- wie|się ra- du- ją|pod nie- bio- sa|
w: |||
 !3!A,2 !3!A,2 !1!C2 !3!A,2 | !1!C3 C C4 | !2!B,3 B, B,4 | !4!G,3 G, G,4 | z2 z2 z2 !2!B,2 | %12
w: wy- śpie- wu- ją||||sis|
w: |||||
 !3!A,4 !4!G,4 | !5!!3![F,A,]8 |] %14
w: ||
w: ||

